X:31
T:Stolen card, The
I:Dedicated to the man who stole
I:my credit card while having a
I:drink whith me and talking about piping
I:on the 31st of july 2002.
I:Shame on you David, if this is your real name
I:I hope you'll play this tune.
C:Pierre Commes
R:Polka
Q:1/4=120
M:2/4
L:1/8
K:D
:de/f/ gf |ed ce |de/f/ gf |e2 cd/e/ |\
de/f/ gf |ed cB |AG/A/ ec |ed d2 :|\
:fe/f/ ga |gf ef/e/ |de/f/ ga |gf eA |\
fe/f/ ga |gf ef/g/ |ea ge |ed d2 :|\
